img/expert-card-bg-img-01.svg

<svg width="30" height="30" viewBox="0 0 30 30" fill="none" xmlns="http://www.w3.org/2000/svg">
<path fill-rule="evenodd" clip-rule="evenodd" d="M17.2367 7.77151C16.7729 8.09308 16.2497 8.31905 15.6976 8.43623C15.1456 8.55342 14.5757 8.55949 14.0212 8.45407C13.4668 8.34865 12.9389 8.13385 12.4684 7.82223C11.9979 7.5106 11.5941 7.10838 11.2807 6.63904C10.9673 6.1697 10.7505 5.64263 10.643 5.08861C10.5354 4.53458 10.5393 3.96468 10.6544 3.41218C10.7695 2.85967 10.9935 2.33562 11.3133 1.8706C11.6331 1.40559 12.0423 1.00893 12.517 0.703761C13.4544 0.0846608 14.5986 -0.138187 15.6998 0.0839308C16.8009 0.306048 17.7693 0.955065 18.3933 1.88911C19.0173 2.82315 19.2462 3.96625 19.0298 5.06853C18.8135 6.17081 18.1696 7.14262 17.2388 7.77151H17.2367ZM16.0573 2.47176C15.8259 2.30528 15.5633 2.18706 15.2853 2.12415C15.0072 2.06124 14.7193 2.05493 14.4388 2.10558C14.1583 2.15622 13.8908 2.26281 13.6523 2.41897C13.4138 2.57514 13.2091 2.7777 13.0505 3.0146C12.8919 3.25149 12.7826 3.51788 12.7291 3.79789C12.6756 4.07791 12.679 4.36583 12.739 4.64451C12.7991 4.92319 12.9146 5.18694 13.0788 5.42004C13.2429 5.65315 13.4522 5.85086 13.6943 6.00139C14.162 6.28552 14.7214 6.37824 15.2558 6.26023C15.7902 6.14222 16.2585 5.82258 16.563 5.36789C16.8676 4.9132 16.985 4.35852 16.8908 3.81941C16.7966 3.2803 16.498 2.79833 16.0573 2.47389V2.47176ZM21.6036 2.53551C22.2164 2.12326 22.9539 1.93762 23.6889 2.01054C24.4239 2.08346 25.1105 2.41038 25.6304 2.93501C26.0009 3.30848 26.2741 3.76715 26.426 4.27079C26.578 4.77443 26.604 5.30766 26.5018 5.82371C26.3997 6.33975 26.1724 6.82284 25.8401 7.23061C25.5077 7.63838 25.0804 7.95837 24.5956 8.16251C24.0133 8.40598 23.3715 8.47011 22.7526 8.34669C22.1336 8.22328 21.5656 7.91794 21.1212 7.46976C20.7872 7.13405 20.5315 6.72865 20.3725 6.28259C20.2135 5.83653 20.155 5.36083 20.2013 4.88954C20.2476 4.41825 20.3975 3.96302 20.6403 3.55643C20.8831 3.14984 21.2127 2.80194 21.6057 2.53764L21.6036 2.53551ZM22.6236 5.95676C22.8231 6.15543 23.0933 6.2667 23.3749 6.2661C23.5143 6.2658 23.6523 6.23805 23.7809 6.18443C23.9096 6.13081 24.0265 6.05236 24.1249 5.95357C24.2232 5.85479 24.3012 5.73759 24.3543 5.60868C24.4073 5.47977 24.4345 5.34167 24.4342 5.20226C24.4339 5.06285 24.4062 4.92486 24.3525 4.79618C24.2989 4.66749 24.2205 4.55063 24.1217 4.45226C23.9238 4.25328 23.6564 4.13899 23.3758 4.13351C23.2357 4.13323 23.0968 4.16073 22.9674 4.21442C22.8379 4.26811 22.7204 4.34694 22.6216 4.44633C22.5228 4.54573 22.4447 4.66372 22.3918 4.7935C22.3388 4.92327 22.3122 5.06224 22.3133 5.20239C22.314 5.48539 22.4253 5.7569 22.6236 5.95889V5.95676ZM4.65455 24.3975H8.5008V26.5331H4.65455C3.98123 26.5271 3.3378 26.2542 2.8653 25.7745C2.39099 25.293 2.12533 24.6441 2.1258 23.9683V20.122C1.8397 20.1124 1.5585 20.045 1.29919 19.9237C1.03988 19.8025 0.807827 19.6299 0.61705 19.4165C0.414334 19.2112 0.255241 18.967 0.149338 18.6985C0.0434344 18.4301 -0.00709083 18.1431 0.000800442 17.8546V13.2179C0.00717544 12.2149 0.40455 11.2565 1.1058 10.5446C1.80493 9.84126 2.75055 9.43964 3.7408 9.43326H7.6508C7.1234 10.0614 6.72612 10.788 6.48205 11.571H3.7408C3.30951 11.5834 2.89915 11.7597 2.5933 12.064C2.29287 12.3729 2.1251 12.787 2.1258 13.2179V17.9609H4.2508V23.9661C4.24587 24.024 4.25275 24.0823 4.27101 24.1375C4.28928 24.1926 4.31855 24.2435 4.35705 24.287C4.44247 24.353 4.54664 24.3902 4.65455 24.3933V24.3975ZM20.167 10.5468C19.8193 10.1957 19.4057 9.91675 18.9498 9.72602C18.494 9.53529 18.0049 9.43653 17.5108 9.43539H12.2408C11.2502 9.44331 10.3029 9.84284 9.6058 10.5468C8.90455 11.2586 8.50718 12.217 8.5008 13.22V19.9733C8.4978 20.5531 8.71853 21.1118 9.11705 21.533C9.30806 21.7462 9.54016 21.9185 9.79943 22.0397C10.0587 22.161 10.3398 22.2286 10.6258 22.2385V27.1749C10.6238 27.5118 10.6885 27.8458 10.8161 28.1576C10.9438 28.4695 11.1319 28.7529 11.3696 28.9918C11.7521 29.3488 12.2344 29.5804 12.7508 29.6548H17.0008C17.5985 29.5763 18.1461 29.2797 18.5384 28.8219C18.9306 28.3642 19.1398 27.7776 19.1258 27.1749V22.2364C19.4119 22.2268 19.6931 22.1594 19.9524 22.0381C20.2117 21.9169 20.4438 21.7443 20.6346 21.5309C20.8371 21.3259 20.9961 21.082 21.102 20.814C21.2079 20.5459 21.2585 20.2592 21.2508 19.9711V13.2179C21.2523 12.2195 20.8633 11.2601 20.167 10.5446V10.5468ZM19.1258 20.0774H17.0008V27.1749C16.9987 27.2869 16.953 27.3937 16.8733 27.4724C16.837 27.5153 16.7913 27.5492 16.7396 27.5713C16.688 27.5935 16.6319 27.6032 16.5758 27.5999H13.1546C13.0435 27.5947 12.9384 27.5483 12.8598 27.4697C12.7812 27.3911 12.7347 27.2859 12.7296 27.1749V20.0774H10.6258V13.2179C10.6258 12.7865 10.7937 12.3721 11.0933 12.064C11.3992 11.7597 11.8095 11.5834 12.2408 11.571H17.5108C17.8327 11.5767 18.146 11.6762 18.4121 11.8574C18.6782 12.0386 18.8857 12.2936 19.0089 12.591C19.0898 12.7899 19.1296 13.0032 19.1258 13.2179V20.0774ZM25.0971 26.531H21.2508V24.3954H25.0758C25.1837 24.3924 25.2879 24.3552 25.3733 24.2891C25.4161 24.2473 25.4496 24.1969 25.4715 24.1413C25.4935 24.0856 25.5035 24.0259 25.5008 23.9661V17.9609H27.6258V13.2179C27.6265 12.787 27.4587 12.3729 27.1583 12.064C26.8524 11.7597 26.4421 11.5834 26.0108 11.571H23.2696C23.0256 10.788 22.6283 10.0613 22.1008 9.43326H26.0108C27.0012 9.44234 27.9481 9.84169 28.6458 10.5446C29.347 11.2565 29.7444 12.2149 29.7508 13.2179V17.8546C29.7508 18.4348 29.5319 18.9915 29.1367 19.4123C28.7414 19.8351 28.2017 20.088 27.6258 20.1199V23.9661C27.6258 24.644 27.3602 25.2921 26.8863 25.7724C26.4138 26.2521 25.7704 26.5249 25.0971 26.531ZM6.3758 1.99576C5.74346 1.99503 5.12531 2.18314 4.60057 2.536C4.07583 2.88885 3.66842 3.39037 3.43055 3.97626C3.19049 4.56195 3.12817 5.20536 3.25136 5.82623C3.37456 6.4471 3.67781 7.01797 4.1233 7.46764C4.56863 7.91678 5.13774 8.22298 5.75793 8.34712C6.37812 8.47126 7.02124 8.4077 7.60514 8.16456C8.18903 7.92142 8.68719 7.50975 9.03598 6.98212C9.38478 6.45449 9.56837 5.83486 9.5633 5.20239C9.5633 4.35239 9.22755 3.53639 8.6283 2.93501C8.33323 2.63779 7.98233 2.40181 7.59577 2.24063C7.20921 2.07944 6.79462 1.99622 6.3758 1.99576ZM6.3758 6.27126C6.23565 6.27155 6.09684 6.24405 5.96739 6.19035C5.83793 6.13666 5.72041 6.05784 5.6216 5.95844C5.5228 5.85905 5.44468 5.74105 5.39176 5.61128C5.33885 5.48151 5.31218 5.34253 5.3133 5.20239C5.31385 4.92017 5.42577 4.64959 5.62473 4.44944C5.82368 4.24928 6.0936 4.13575 6.3758 4.13351C6.65714 4.13847 6.92548 4.25287 7.12386 4.45244C7.32223 4.652 7.43503 4.92102 7.4383 5.20239C7.43775 5.4846 7.32583 5.75519 7.12688 5.95534C6.92792 6.15549 6.658 6.26902 6.3758 6.27126Z" fill="#FFA62B"/>
</svg>

<svg width="30" height="30" fill="none" xmlns="http://www.w3.org/2000/svg"><path fill-rule="evenodd" clip-rule="evenodd" d="M17.237 7.772a4.25 4.25 0 1 1-4.72-7.068 4.25 4.25 0 0 1 4.722 7.068h-.002Zm-1.18-5.3a2.125 2.125 0 1 0-2.363 3.53 2.125 2.125 0 0 0 2.363-3.528v-.002Zm5.547.064a3.175 3.175 0 0 1 4.026.399 3.215 3.215 0 0 1-1.034 5.228 3.17 3.17 0 0 1-3.475-.693 3.213 3.213 0 0 1 .485-4.932l-.002-.002Zm1.02 3.42a1.061 1.061 0 1 0 1.498-1.504 1.082 1.082 0 0 0-.746-.318 1.06 1.06 0 0 0-1.063 1.068c.001.283.112.555.31.757v-.002ZM4.654 24.399h3.847v2.135H4.655a2.543 2.543 0 0 1-1.79-.759 2.571 2.571 0 0 1-.74-1.806v-3.846a2.118 2.118 0 0 1-1.508-.706 2.139 2.139 0 0 1-.616-1.561v-4.637a3.843 3.843 0 0 1 1.105-2.673A3.75 3.75 0 0 1 3.74 9.433h3.91a6.188 6.188 0 0 0-1.169 2.138H3.741a1.696 1.696 0 0 0-1.148.493c-.3.309-.468.723-.467 1.154v4.743H4.25v6.005a.43.43 0 0 0 .106.321.51.51 0 0 0 .298.106v.005Zm15.513-13.851a3.75 3.75 0 0 0-2.656-1.112h-5.27a3.75 3.75 0 0 0-2.635 1.112A3.843 3.843 0 0 0 8.5 13.22v6.753c-.003.58.218 1.139.616 1.56a2.123 2.123 0 0 0 1.509.705v4.937a2.555 2.555 0 0 0 .744 1.817 2.56 2.56 0 0 0 1.38.663H17a2.444 2.444 0 0 0 2.126-2.48v-4.939a2.118 2.118 0 0 0 1.509-.705 2.139 2.139 0 0 0 .616-1.56v-6.753a3.825 3.825 0 0 0-1.084-2.673v.002Zm-1.041 9.53H17v7.098a.43.43 0 0 1-.128.297.361.361 0 0 1-.297.128h-3.421a.446.446 0 0 1-.425-.425v-7.098h-2.104v-6.86c0-.43.168-.845.467-1.153.306-.304.716-.48 1.148-.493h5.27a1.653 1.653 0 0 1 1.498 1.02c.08.199.12.412.117.627v6.86Zm5.971 6.454h-3.846v-2.136h3.825a.51.51 0 0 0 .297-.106.424.424 0 0 0 .128-.323v-6.005h2.125v-4.743c0-.431-.167-.845-.468-1.154a1.696 1.696 0 0 0-1.147-.493H23.27a6.185 6.185 0 0 0-1.17-2.138h3.91c.991.01 1.938.409 2.636 1.112a3.844 3.844 0 0 1 1.105 2.673v4.637c0 .58-.22 1.136-.614 1.557a2.236 2.236 0 0 1-1.511.708v3.846a2.57 2.57 0 0 1-.74 1.806 2.544 2.544 0 0 1-1.789.759ZM6.376 1.996a3.175 3.175 0 0 0-2.945 1.98 3.224 3.224 0 0 0 .692 3.492 3.181 3.181 0 0 0 5.44-2.266 3.212 3.212 0 0 0-1.967-2.961 3.179 3.179 0 0 0-1.22-.245Zm0 4.275a1.06 1.06 0 0 1-1.063-1.069 1.071 1.071 0 0 1 1.063-1.068 1.082 1.082 0 0 1 1.062 1.068 1.071 1.071 0 0 1-1.062 1.07Z" fill="#FFA62B"/></svg>
